X: 2336
T: Bag Of Spuds, The
R: reel
M: 4/4
K: Adorian
A2eA (3cBA eA|ABcd dedB|G2dG (3BAG dB|GB (3BBB GBdB|
A2eA (3cBA eA|ABcd dedB|GABd (3eee ge|dBGB (3cBA AG:|
|:a2ea ag (3efg|agbg agef|gedc BGBd|(3ggg ga bgeg|
a2ea ageg|agbg ageg|dddf (3ggg ge|dBGA BA (3AAA:|

